CodeEditor2/CodeEditor2/Assets/Icons/text.svg

<?xml version="1.0" encoding="UTF-8" standalone="no"?>
<!--?xml version="1.0" encoding="utf-8"?-->

<!-- Generator: Adobe Illustrator 18.0.0, SVG Export Plug-In . SVG Version: 6.00 Build 0)  -->

<svg
   version="1.1"
   id="_x32_"
   x="0px"
   y="0px"
   viewBox="0 0 512 512"
   style="width: 256px; height: 256px; opacity: 1;"
   xml:space="preserve"
   sodipodi:docname="text.svg"
   inkscape:version="1.3.2 (091e20e, 2023-11-25, custom)"
   xmlns:inkscape="http://www.inkscape.org/namespaces/inkscape"
   xmlns:sodipodi="http://sodipodi.sourceforge.net/DTD/sodipodi-0.dtd"
   xmlns="http://www.w3.org/2000/svg"
   xmlns:svg="http://www.w3.org/2000/svg"><defs
   id="defs1" /><sodipodi:namedview
   id="namedview1"
   pagecolor="#ffffff"
   bordercolor="#000000"
   borderopacity="0.25"
   inkscape:showpageshadow="2"
   inkscape:pageopacity="0.0"
   inkscape:pagecheckerboard="0"
   inkscape:deskcolor="#d1d1d1"
   inkscape:zoom="1.0947266"
   inkscape:cx="379.09009"
   inkscape:cy="341.18108"
   inkscape:window-width="2256"
   inkscape:window-height="1398"
   inkscape:window-x="-11"
   inkscape:window-y="-11"
   inkscape:window-maximized="1"
   inkscape:current-layer="_x32_" />
<style
   type="text/css"
   id="style1">
	.st0{fill:#4B4B4B;}
</style>
<path
   d="M 133.44141,0.9140625 C 119.79516,0.77299947 100.73396,8.8080508 91.083984,18.457031 L 17.818359,91.722656 C 8.168379,101.37264 0.27539063,120.4331 0.27539063,134.08008 v 354.02148 c 0,13.64698 11.16357437,24.8125 24.81054637,24.8125 H 313.70312 l 114.48047,3.65235 h 58.73047 c 13.64698,0 24.8125,-11.16357 24.8125,-24.81055 V 433.02344 383.40039 29.378906 C 511.72556,15.731934 500.56031,4.7074693 486.91406,4.5664062 Z M 80.804687,123.73633 H 450.93359 c 3.69067,0 6.6836,3.25194 6.6836,7.26562 v 25.52735 h -0.002 c 0,4.01367 -2.99292,7.26562 -6.68359,7.26562 H 80.804687 c -3.690666,0 -6.683593,-3.25359 -6.683593,-7.26562 v -25.52735 c 0,-4.01368 2.992927,-7.26562 6.683593,-7.26562 z m 0,124.86914 H 450.93359 c 3.69067,0 6.6836,3.25358 6.6836,7.26562 v 25.52539 h -0.002 c 0,4.01369 -2.99292,7.26954 -6.68359,7.26954 H 80.804687 c -3.690666,0 -6.683593,-3.25421 -6.683593,-7.26954 v -25.52539 c 0,-4.01368 2.992927,-7.26562 6.683593,-7.26562 z M 79.878906,373.47266 H 352.98828 c 3.17989,0 5.75586,2.80156 5.75586,6.25976 v 27.54297 c 0,3.4582 -2.57597,6.25977 -5.75586,6.25977 H 79.878906 c -3.178367,0 -5.757812,-2.80321 -5.757812,-6.25977 v -27.54297 c 0,-3.4582 2.579445,-6.25976 5.757812,-6.25976 z"
   style="fill:#4b4b4b"
   id="path3" />
</svg>

<?xml version="1.0" encoding="UTF-8" standalone="no"?><!DOCTYPE svg PUBLIC "-//W3C//DTD SVG 1.1//EN" "http://www.w3.org/Graphics/SVG/1.1/DTD/svg11.dtd"><svg width="100%" height="100%" viewBox="0 0 512 512" version="1.1" xmlns="http://www.w3.org/2000/svg" xmlns:xlink="http://www.w3.org/1999/xlink" xml:space="preserve" xmlns:serif="http://www.serif.com/" style="fill-rule:evenodd;clip-rule:evenodd;stroke-linejoin:round;stroke-miterlimit:2;"><path id="path3" d="M133.441,0.914c-13.646,-0.141 -32.707,7.894 -42.357,17.543l-73.266,73.266c-9.65,9.65 -17.543,28.71 -17.543,42.357l-0,354.021c0,13.647 11.164,24.813 24.811,24.813l288.617,0l114.48,3.652l58.73,0c13.647,0 24.812,-11.164 24.812,-24.811l0,-462.377c-0.001,-13.647 -11.166,-24.671 -24.812,-24.812l-353.473,-3.652Zm-52.637,122.822l370.129,0c3.691,0 6.684,3.252 6.684,7.266l0,25.527l-0.002,0c0,4.014 -2.993,7.266 -6.684,7.266l-370.127,0c-3.691,0 -6.684,-3.254 -6.684,-7.266l0,-25.527c0,-4.014 2.993,-7.266 6.684,-7.266Zm0,124.869l370.129,0c3.691,0 6.684,3.254 6.684,7.266l0,25.525l-0.002,0c0,4.014 -2.993,7.27 -6.684,7.27l-370.127,0c-3.691,0 -6.684,-3.254 -6.684,-7.27l0,-25.525c0,-4.014 2.993,-7.266 6.684,-7.266Zm-0.926,124.867l273.109,0c3.18,0 5.756,2.802 5.756,6.26l0,27.543c0,3.458 -2.576,6.26 -5.756,6.26l-273.109,0c-3.178,0 -5.758,-2.803 -5.758,-6.26l0,-27.543c0,-3.458 2.579,-6.26 5.758,-6.26Z" style="fill:#4b4b4b;fill-rule:nonzero;"/></svg>
